icon/lg/selenium.svg

<?xml version="1.0" encoding="UTF-8"?>
<svg viewBox="0 0 256 269" version="1.1" xmlns="http://www.w3.org/2000/svg" xmlns:xlink="http://www.w3.org/1999/xlink" preserveAspectRatio="xMidYMid" height="1em" width="1em">
  <g>
    <path d="M234.152874,0.00343857381 C234.808025,-0.0379575263 235.429647,0.297028821 235.755341,0.866994098 C236.081036,1.43695938 236.054047,2.14258032 235.685767,2.68600216 L235.685767,2.68600216 L169.388124,92.7434941 C168.902258,93.2919104 168.204691,93.6058549 167.472007,93.6058549 C166.739323,93.6058549 166.041756,93.2919104 165.55589,92.7434941 L165.55589,92.7434941 L142.179265,66.684305 C141.608302,66.0916135 140.79919,65.7901017 139.979599,65.86461 C139.160008,65.9391182 138.418531,66.3815927 137.963808,67.0675283 L137.963808,67.0675283 L123.784543,85.0790267 C123.335922,86.0932522 123.483294,87.2722249 124.167766,88.1448137 L124.167766,88.1448137 L166.322337,131.832278 C166.808203,132.380694 167.50577,132.694639 168.238454,132.694639 C168.971138,132.694639 169.668705,132.380694 170.154571,131.832278 L170.154571,131.832278 L252.930819,38.708999 C253.419531,38.1837537 254.176911,38.0053627 254.848672,38.2572733 C255.520434,38.5091839 255.973764,39.1415911 255.996606,39.8586691 L255.996606,39.8586691 L255.996606,266.343681 C256.028319,266.860939 255.83665,267.366955 255.470206,267.733398 C255.103763,268.099842 254.597747,268.291511 254.080489,268.259798 L254.080489,268.259798 L1.91951123,268.259798 C1.40225345,268.291511 0.896236952,268.099842 0.529793658,267.733398 C0.163350364,267.366955 -0.0283193115,266.860939 0.00339438157,266.343681 L0.00339438157,266.343681 L0.00339438157,1.91955542 C-0.0283193115,1.40229764 0.163350364,0.896281144 0.529793658,0.52983785 C0.896236952,0.163394556 1.40225345,-0.0282751193 1.91951123,0.00343857381 L1.91951123,0.00343857381 Z M169.004901,152.909563 C157.595908,152.708949 146.600443,157.179283 138.568082,165.284007 C130.535722,173.388731 126.164179,184.423846 126.467107,195.830581 C126.467107,222.272993 145.628275,239.134822 170.537794,239.134822 C182.068736,239.421769 193.375993,235.921903 202.728557,229.171014 C203.595534,228.383773 203.758299,227.081655 203.111781,226.105227 L203.111781,226.105227 L196.21376,215.758196 C195.438224,214.868953 194.118537,214.703992 193.147973,215.374973 C187.152367,219.469543 180.095799,221.73297 172.837134,221.88977 C159.424316,221.88977 150.993402,213.458856 149.460509,203.495048 C149.488325,203.083823 149.815731,202.756417 150.226955,202.728601 L150.226955,202.728601 L208.093684,202.728601 C209.327358,202.645153 210.309577,201.662935 210.393025,200.429261 L210.393025,200.429261 L210.393025,198.129921 C210.393025,171.304285 193.531196,152.909563 169.004901,152.909563 Z M111.904618,138.347075 C100.26487,128.832771 85.5368757,123.923439 70.5164945,124.551034 C44.4573053,124.551034 28.3619238,139.879969 28.3619238,158.27469 C28.3619238,200.046038 91.9770032,186.63322 91.9770032,206.177612 C91.9770032,212.309186 85.8454293,218.44076 72.8158347,218.44076 C60.4410031,218.54287 48.5018438,213.876992 39.4754015,205.411165 C38.9365113,204.907341 38.2064628,204.660494 37.4723971,204.733901 C36.7383313,204.807307 36.0716199,205.19383 35.6431678,205.794388 L35.6431678,205.794388 L25.6793602,219.59043 C25.0328421,220.566858 25.1956068,221.868976 26.0625835,222.656217 C36.4096145,232.236801 50.9721026,238.751598 71.2829412,238.751598 C101.174364,238.751598 115.736852,223.422663 116.503299,203.495048 C116.503299,162.106924 52.8882195,173.986849 52.8882195,156.358574 C52.8882195,149.843776 58.63657,145.245096 68.6003776,145.245096 C79.5839899,145.094583 90.2811092,148.750561 98.8750239,155.592127 C99.3802624,156.006036 100.031063,156.198722 100.680205,156.126595 C101.329346,156.054468 101.921977,155.723624 102.324034,155.208903 L102.324034,155.208903 L112.287842,141.796086 C112.701751,141.290847 112.894437,140.640046 112.82231,139.990905 C112.750183,139.341763 112.419339,138.749133 111.904618,138.347075 Z M169.388124,169.771392 C179.811439,169.188344 188.809537,176.998014 189.698963,187.399667 C189.671147,187.810891 189.34374,188.138297 188.932516,188.166113 L188.932516,188.166113 L149.843732,188.166113 C149.432507,188.138297 149.105101,187.810891 149.077285,187.399667 C150.358676,177.20234 159.111948,169.60516 169.388124,169.771392 Z" fill="#2CB134"/>
  </g>
</svg>

<svg width="256" height="269" xmlns="http://www.w3.org/2000/svg" preserveAspectRatio="xMidYMid"><path d="M234.153.003a1.72 1.72 0 0 1 1.533 2.683l-66.298 90.057a2.56 2.56 0 0 1-3.832 0l-23.377-26.059a2.713 2.713 0 0 0-4.215.384l-14.18 18.011a3 3 0 0 0 .384 3.066l42.154 43.687a2.56 2.56 0 0 0 3.833 0L252.93 38.71a1.77 1.77 0 0 1 3.066 1.15v226.485a1.809 1.809 0 0 1-1.917 1.916H1.92a1.809 1.809 0 0 1-1.917-1.916V1.92A1.809 1.809 0 0 1 1.92.003ZM169.005 152.91a41.817 41.817 0 0 0-42.538 42.92c0 26.443 19.161 43.305 44.07 43.305a52.758 52.758 0 0 0 32.192-9.964 2.372 2.372 0 0 0 .383-3.066l-6.898-10.347a2.319 2.319 0 0 0-3.066-.383 37.449 37.449 0 0 1-20.31 6.515c-13.414 0-21.845-8.431-23.377-18.395a.824.824 0 0 1 .766-.766h57.867a2.472 2.472 0 0 0 2.299-2.3v-2.3c0-26.825-16.862-45.22-41.388-45.22Zm-57.1-14.563a61.35 61.35 0 0 0-41.389-13.796c-26.059 0-42.154 15.329-42.154 33.724 0 41.771 63.615 28.358 63.615 47.903 0 6.131-6.132 12.263-19.161 12.263a48.156 48.156 0 0 1-33.34-13.03 2.56 2.56 0 0 0-3.833.383L25.68 219.59a2.372 2.372 0 0 0 .384 3.066c10.347 9.58 24.91 16.096 45.22 16.096 29.891 0 44.454-15.33 45.22-35.257 0-41.388-63.615-29.508-63.615-47.136 0-6.515 5.749-11.114 15.712-11.114a47.562 47.562 0 0 1 30.275 10.347 2.426 2.426 0 0 0 3.449-.383l9.964-13.413a2.426 2.426 0 0 0-.383-3.449Zm57.483 31.424c10.423-.583 19.422 7.227 20.311 17.629a.824.824 0 0 1-.766.766h-39.09a.824.824 0 0 1-.766-.766c1.282-10.198 10.035-17.795 20.311-17.629Z" fill="#2CB134"/></svg>
